lib/preview/nrk-logo-preview-nrk-tegnspraak.svg

<svg width="122" height="20" viewBox="0 0 122 20" fill="currentColor" xmlns="http://www.w3.org/2000/svg">
<path d="M0 16.0028V4.0039H3.93719V16.0028H0ZM9.29381 5.91359L11.5581 16.0028H7.24917L4.54549 4.0039H6.96218C7.51635 3.99671 8.05406 4.19206 8.4745 4.5532C8.89562 4.89919 9.18495 5.37951 9.29381 5.91359ZM12.1495 16.0028V4.0039H16.0867V16.0028H12.1495ZM19.0605 8.56691C18.6362 8.57104 18.2188 8.46004 17.8525 8.24577C17.4912 8.03693 17.1911 7.73677 16.9823 7.37541C16.7678 7.00914 16.6568 6.59157 16.661 6.16713C16.6561 5.74527 16.7672 5.33019 16.9823 4.96723C17.1933 4.6098 17.4931 4.3129 17.8525 4.10533C18.2189 3.89131 18.6362 3.78032 19.0605 3.78419C19.4822 3.77965 19.8971 3.89074 20.2602 4.10533C20.616 4.31472 20.9127 4.61137 21.122 4.96723C21.3368 5.33029 21.4479 5.7453 21.4433 6.16713C21.4473 6.59154 21.3363 7.00903 21.122 7.37541C20.9149 7.73518 20.6179 8.03509 20.2602 8.24577C19.8971 8.46078 19.4819 8.5719 19.0599 8.56691H19.0605ZM22.0516 16.0028V4.0039H25.9892V16.0028H22.0516ZM30.9737 10.561C30.9848 10.5727 31.0693 10.7107 31.2272 10.9751C31.3851 11.2395 31.5906 11.5775 31.8439 11.9891C32.0974 12.4005 32.3649 12.8371 32.6463 13.2988C32.9278 13.7605 33.1926 14.1972 33.4408 14.6086C33.6881 15.02 33.9697 15.4847 34.2857 16.0028H29.9598C29.6893 15.5634 29.4441 15.1663 29.2245 14.8114C29.0048 14.4565 28.7713 14.0734 28.5238 13.6622C28.2758 13.2513 28.0306 12.8513 27.7882 12.4623C27.5458 12.0732 27.3375 11.7324 27.1633 11.4399C26.9883 11.1471 26.8671 10.9499 26.7997 10.8483C26.6325 10.5963 26.5336 10.3051 26.5127 10.0034C26.5294 9.71374 26.6226 9.43378 26.7828 9.19192C26.8504 9.07925 26.9743 8.87924 27.1545 8.59194C27.3348 8.30464 27.546 7.96386 27.7882 7.56953C28.0304 7.1752 28.2756 6.77241 28.5238 6.36118C28.772 5.94995 29.0056 5.56404 29.2245 5.20351C29.4445 4.84336 29.6897 4.44339 29.9598 4.00362H34.2857L30.9396 9.4623C30.8361 9.62437 30.7777 9.81115 30.7706 10.0034C30.7818 10.2051 30.8522 10.3991 30.9731 10.561H30.9737Z"/>
<path d="M38.8572 5.47593H42.7354V16.0098H44.5136V5.47593H48.3752V3.9856H38.8572V5.47593Z"/>
<path d="M56.5381 8.46504C56.213 8.04368 55.7841 7.71398 55.2933 7.5082C54.748 7.28564 54.1632 7.17616 53.5744 7.18642C52.9811 7.17634 52.3925 7.29177 51.847 7.52514C51.3508 7.74239 50.9084 8.06617 50.5514 8.47352C50.1835 8.90147 49.9069 9.39993 49.7382 9.93844C49.5452 10.5548 49.451 11.1979 49.459 11.8437C49.4351 12.6597 49.6063 13.4696 49.9584 14.2062C50.2803 14.8444 50.8002 15.3613 51.4402 15.6796C52.1913 16.0334 53.0155 16.2046 53.8453 16.1792C54.2445 16.1826 54.6435 16.1571 55.039 16.103C55.3697 16.0554 55.6955 15.9789 56.0128 15.8743C56.3275 15.7687 56.6334 15.6385 56.9276 15.4848L57.0461 14.1808C56.8314 14.2598 56.614 14.3388 56.3939 14.4179C56.1737 14.4969 55.9451 14.5675 55.708 14.6296C55.4688 14.6922 55.2254 14.7375 54.9797 14.765C54.7324 14.7932 54.4837 14.8074 54.2349 14.8074C53.7902 14.8146 53.3463 14.7662 52.9136 14.6634C52.5645 14.5801 52.2417 14.4113 51.974 14.1723C51.7032 13.9147 51.5047 13.5906 51.3981 13.2324C51.2874 12.8696 51.2254 12.4938 51.2136 12.1147H57.3338C57.4171 11.4142 57.3856 10.7049 57.2406 10.0147C57.1216 9.45329 56.8819 8.92453 56.5381 8.46504ZM52.2703 8.8715C52.6677 8.63028 53.1265 8.50968 53.591 8.52432C54.0562 8.50107 54.5156 8.63533 54.8951 8.90538C55.2324 9.17448 55.4732 9.54598 55.581 9.96385C55.6654 10.2728 55.707 10.5919 55.7046 10.9122H51.2505C51.2821 10.5745 51.3543 10.2419 51.4656 9.9215C51.6102 9.49208 51.8933 9.12278 52.2703 8.8715Z"/>
<path d="M64.8785 7.40658C64.6198 7.33576 64.3567 7.28203 64.091 7.24571C63.7878 7.20494 63.4822 7.18513 63.1762 7.18643C62.6237 7.18416 62.0765 7.29361 61.5674 7.5082C61.0572 7.72416 60.594 8.03768 60.204 8.43118C59.7883 8.85547 59.4679 9.36356 59.2641 9.92151C59.0279 10.5754 58.9131 11.267 58.9254 11.9622C58.9069 12.727 59.0541 13.4868 59.357 14.1892C59.6225 14.79 60.0621 15.2973 60.619 15.6457C61.2282 16.0051 61.927 16.1842 62.634 16.1622C63.2551 16.16 63.8702 16.0393 64.4461 15.8066C64.7903 15.6664 65.1148 15.482 65.4114 15.2582V15.7219C65.4184 16.1035 65.3641 16.4837 65.2508 16.8481C65.153 17.1538 64.9848 17.4323 64.7597 17.661C64.517 17.894 64.2201 18.0628 63.8957 18.1521C63.4739 18.268 63.0375 18.3222 62.6001 18.313C62.2522 18.3125 61.9046 18.2927 61.5589 18.2538C61.1958 18.2127 60.8362 18.1448 60.4832 18.0505C60.1196 17.9537 59.7632 17.832 59.4163 17.6864L59.6025 19.1767C59.914 19.3031 60.2338 19.4078 60.5597 19.4901C60.9024 19.5766 61.2502 19.6416 61.601 19.6848C61.9718 19.7304 62.3451 19.753 62.7187 19.7526C63.5522 19.7787 64.3806 19.6136 65.1404 19.2699C65.7574 18.9826 66.2737 18.5165 66.6223 17.932C66.9634 17.3313 67.1361 16.6497 67.1222 15.959V7.18643L65.4656 7.61264C65.2744 7.53169 65.0784 7.46285 64.8785 7.40658ZM65.1915 14.1892C64.9818 14.3112 64.7639 14.4187 64.5395 14.511C64.3419 14.5922 64.138 14.6574 63.9299 14.7058C63.7271 14.7517 63.5199 14.7744 63.312 14.7735C62.8033 14.7919 62.2985 14.6781 61.8468 14.4433C61.4533 14.2186 61.1486 13.866 60.9834 13.4441C60.7792 12.8948 60.6843 12.3109 60.7039 11.7251C60.6963 11.2577 60.7619 10.792 60.8984 10.3449C61.0094 9.97742 61.2003 9.63907 61.4576 9.35417C61.708 9.08928 62.0146 8.88385 62.3548 8.75295C62.7415 8.60647 63.1524 8.53463 63.5657 8.54126C63.8326 8.54106 64.099 8.56372 64.362 8.609C64.6313 8.65654 64.8971 8.7216 65.158 8.80376C65.2409 8.82973 65.3273 8.86416 65.412 8.89577V14.0589C65.3375 14.1034 65.2615 14.1492 65.1915 14.1892Z"/>
<path d="M76.3859 7.54207C75.8828 7.28794 75.3234 7.16557 74.7601 7.18642C74.2685 7.18738 73.7801 7.26451 73.3121 7.41505C72.8299 7.56868 72.3711 7.78808 71.9488 8.06707C71.7854 8.17461 71.6282 8.29287 71.4746 8.41424V7.20336L69.7472 7.4574V16.0098H71.4746V9.57771C71.6418 9.47979 71.8143 9.39103 71.9911 9.31182C72.229 9.20652 72.4721 9.11326 72.7194 9.03239C72.9572 8.95466 73.2007 8.89521 73.4476 8.85456C73.6799 8.8159 73.9149 8.79609 74.1504 8.7953C74.4268 8.78889 74.7021 8.83191 74.9633 8.92232C75.1789 8.99997 75.3711 9.13108 75.5222 9.30336C75.6777 9.49016 75.7878 9.71042 75.844 9.9469C75.9161 10.2463 75.9503 10.5535 75.9456 10.8614V16.0098H77.673V10.5058C77.6955 9.86375 77.586 9.22392 77.3512 8.62593C77.1599 8.16671 76.82 7.78503 76.3859 7.54207Z"/>
<path d="M85.5816 12.1146C85.4081 11.9309 85.2084 11.7739 84.9888 11.6489C84.7615 11.5188 84.5234 11.4083 84.2773 11.3187C84.0966 11.2622 83.9188 11.203 83.7438 11.1409C83.5688 11.0788 83.3938 11.0223 83.2188 10.9715C83.0438 10.9207 82.8744 10.8671 82.7107 10.8106C82.5572 10.7584 82.4073 10.6961 82.2619 10.6243C82.1227 10.5504 81.9896 10.4654 81.864 10.3703C81.748 10.2829 81.6502 10.1735 81.5763 10.0485C81.5016 9.9201 81.4634 9.77369 81.466 9.62513C81.4614 9.46185 81.5026 9.30054 81.5848 9.1594C81.6732 9.02075 81.7956 8.90706 81.9404 8.82916C82.1176 8.73181 82.3091 8.6632 82.5078 8.62593C82.7561 8.57829 83.0086 8.5556 83.2614 8.55819C83.3853 8.55819 83.5208 8.56411 83.6679 8.57512C83.8149 8.58613 83.9753 8.60646 84.1505 8.6344C84.3258 8.66234 84.5002 8.69961 84.6752 8.74449C84.8502 8.78937 85.0281 8.84045 85.209 8.8969C85.3765 8.94837 85.5404 9.01059 85.6998 9.08318L85.8187 7.71141C85.604 7.62109 85.3923 7.54207 85.1836 7.47432C84.975 7.40673 84.763 7.35019 84.5485 7.30496C84.339 7.26057 84.1269 7.22948 83.9134 7.21183C83.7044 7.19489 83.4983 7.18642 83.2953 7.18642C82.8275 7.18163 82.3609 7.23569 81.9066 7.34731C81.518 7.44168 81.1485 7.60207 80.8142 7.8215C80.5111 8.02194 80.2635 8.29574 80.0945 8.61747C79.9174 8.97196 79.8302 9.36451 79.8405 9.76061C79.8353 10.0459 79.8813 10.3298 79.9762 10.5989C80.0565 10.8248 80.1769 11.0342 80.3319 11.2171C80.4824 11.3898 80.6563 11.5409 80.8484 11.6658C81.0484 11.7971 81.2612 11.9077 81.4835 11.9961C81.6075 12.0412 81.7373 12.0864 81.873 12.1316C82.0087 12.1767 82.1413 12.2191 82.271 12.2586C82.4005 12.2984 82.5275 12.3376 82.6517 12.3771C82.7759 12.4167 82.8973 12.4562 83.0159 12.4957C83.1344 12.5352 83.2501 12.5719 83.3633 12.6058C83.5147 12.6595 83.6618 12.7246 83.8033 12.8005C83.9277 12.8663 84.0442 12.9459 84.1508 13.0376C84.2445 13.1195 84.3195 13.2206 84.3707 13.334C84.4226 13.4512 84.4487 13.5783 84.4472 13.7066C84.4532 13.8319 84.4312 13.9569 84.3828 14.0726C84.3345 14.1884 84.2609 14.2918 84.1675 14.3755C83.9578 14.5507 83.7074 14.6702 83.4393 14.7227C83.1252 14.7921 82.8043 14.8261 82.4827 14.8243C82.2816 14.8229 82.0808 14.8088 81.8815 14.782C81.6613 14.7541 81.4299 14.7146 81.1871 14.6634C80.9444 14.6122 80.6959 14.5502 80.4417 14.4771C80.1878 14.4039 79.9311 14.3221 79.6714 14.2316L79.7391 15.6711C80.0323 15.7727 80.3004 15.8546 80.5436 15.9167C80.7867 15.9788 81.0181 16.0324 81.2379 16.0775C81.45 16.1215 81.6651 16.1498 81.8815 16.1622C82.0901 16.1735 82.3018 16.1792 82.5165 16.1792C82.9888 16.1816 83.4599 16.1333 83.9219 16.0352C84.3286 15.9525 84.7181 15.8007 85.0735 15.5864C85.3939 15.3909 85.6592 15.1169 85.8444 14.7904C86.0382 14.4321 86.1345 14.0291 86.1235 13.6219C86.1306 13.3247 86.0818 13.0289 85.9796 12.7497C85.8886 12.5146 85.7535 12.299 85.5816 12.1146Z"/>
<path d="M94.6844 7.71988C94.0766 7.34773 93.3729 7.16223 92.6606 7.18641C92.2378 7.18848 91.817 7.24252 91.4074 7.3473C90.9647 7.4598 90.5379 7.62766 90.1372 7.8469C90.0576 7.89009 89.9789 7.93807 89.9001 7.98662V7.20335L88.1727 7.47432V19.5662H89.9001V15.7747C89.9117 15.7795 89.9224 15.7848 89.934 15.7896C90.2469 15.9197 90.5736 16.0134 90.9078 16.0691C91.3024 16.1342 91.7018 16.1653 92.1017 16.1622C92.8642 16.1753 93.6161 15.9822 94.2779 15.6033C94.9278 15.2181 95.456 14.6576 95.8021 13.986C96.2021 13.1854 96.3971 12.2979 96.3695 11.4033C96.3853 10.647 96.2381 9.89614 95.9379 9.20174C95.6728 8.59659 95.2372 8.0817 94.6844 7.71988ZM94.2356 13.3848C94.0322 13.8346 93.6912 14.2082 93.2618 14.4517C92.7845 14.7017 92.2508 14.8242 91.7122 14.8074C91.4542 14.8075 91.1966 14.7877 90.9417 14.7481C90.6742 14.7054 90.4107 14.6403 90.1541 14.5533C90.0729 14.5251 89.9848 14.4929 89.9001 14.4619V9.11734C89.9227 9.1069 89.9456 9.09334 89.9679 9.08318C90.2159 8.97027 90.4473 8.87432 90.6622 8.79529C90.8654 8.71946 91.0751 8.66275 91.2888 8.62592C91.479 8.59319 91.6716 8.5762 91.8646 8.57512C92.3867 8.55782 92.9049 8.67136 93.3719 8.90537C93.7803 9.12771 94.1001 9.48336 94.2779 9.91302C94.4934 10.4626 94.5943 11.0504 94.5746 11.6404C94.5925 12.2398 94.4767 12.8357 94.2356 13.3848Z"/>
<path d="M102.008 7.31287C101.692 7.39775 101.389 7.52901 101.111 7.70239C100.822 7.88268 100.555 8.09579 100.315 8.33747C100.275 8.37726 100.236 8.42214 100.197 8.46419V7.20278L98.4689 7.45682V16.0092H100.197V9.61102C100.325 9.52138 100.458 9.43829 100.595 9.36206C100.764 9.26877 100.939 9.18674 101.12 9.1165C101.294 9.04876 101.472 8.98948 101.653 8.93868C101.839 8.88696 102.028 8.85014 102.22 8.82859C102.425 8.80578 102.632 8.80012 102.839 8.81166L103.042 7.21972C102.695 7.19478 102.346 7.22624 102.008 7.31287Z"/>
<path d="M111.95 14.9429C111.826 14.9542 111.701 14.9355 111.586 14.8883C111.471 14.8411 111.369 14.7669 111.289 14.6719C111.132 14.4005 111.067 14.0858 111.103 13.7743L111.137 10.2856C111.141 9.91987 111.095 9.5553 111.001 9.20174C110.919 8.89167 110.782 8.59905 110.595 8.33803C110.407 8.08274 110.167 7.86935 109.892 7.71141C109.573 7.53 109.227 7.39863 108.868 7.32189C108.428 7.22695 107.979 7.18151 107.53 7.18641C107.173 7.18626 106.817 7.20888 106.463 7.25415C106.128 7.29623 105.797 7.3613 105.472 7.44891C105.17 7.53077 104.873 7.62972 104.583 7.74528L104.38 9.18481C104.662 9.08319 104.93 8.99851 105.184 8.93077C105.438 8.86302 105.684 8.80658 105.921 8.76142C106.153 8.71703 106.388 8.68593 106.624 8.66827C106.855 8.65133 107.084 8.64286 107.31 8.64286C107.655 8.63559 108 8.67549 108.334 8.76142C108.578 8.82251 108.803 8.94493 108.986 9.11707C109.149 9.28453 109.266 9.49177 109.325 9.71826C109.397 9.99747 109.431 10.2852 109.426 10.5735L109.424 10.9986L107.445 11.1324C106.768 11.1512 106.101 11.3007 105.48 11.5727C105.016 11.7758 104.615 12.1006 104.32 12.5126C104.07 12.8793 103.937 13.3134 103.939 13.7574C103.936 14.1739 104.038 14.5846 104.236 14.9513C104.443 15.328 104.755 15.6368 105.133 15.8404C105.595 16.0808 106.112 16.1975 106.632 16.1792C107.12 16.1904 107.605 16.11 108.063 15.9421C108.459 15.787 108.821 15.557 109.13 15.2646C109.247 15.1523 109.358 15.0338 109.463 14.9098C109.496 15.0852 109.558 15.2537 109.647 15.4086C109.798 15.6679 110.03 15.8702 110.307 15.9844C110.614 16.1076 110.942 16.168 111.272 16.1622C111.374 16.1622 111.473 16.1594 111.569 16.1538C111.663 16.1481 111.757 16.1339 111.848 16.1114C111.939 16.0885 112.02 16.0691 112.094 16.0521C112.16 16.0373 112.225 16.0175 112.289 15.9929L112.475 14.8582C112.381 14.8903 112.285 14.913 112.187 14.9259C112.108 14.9364 112.029 14.9421 111.95 14.9429ZM109.13 14.1808C108.947 14.326 108.748 14.4509 108.537 14.5533C108.328 14.6551 108.106 14.7291 107.877 14.7735C107.64 14.8192 107.399 14.8419 107.157 14.8413C106.881 14.8491 106.607 14.7971 106.353 14.6888C106.146 14.5991 105.972 14.4484 105.853 14.257C105.736 14.054 105.677 13.8224 105.684 13.588C105.667 13.3057 105.745 13.0259 105.904 12.7921C106.088 12.5769 106.338 12.4281 106.615 12.3687C107.048 12.2667 107.492 12.2212 107.936 12.2332H109.419L109.412 13.914C109.326 14.0109 109.231 14.1001 109.13 14.1808Z"/>
<path d="M106.539 5.83158C106.859 5.98294 107.21 6.05828 107.564 6.05173C107.927 6.05886 108.286 5.98054 108.614 5.8231C108.909 5.67959 109.158 5.45676 109.333 5.17956C109.514 4.88141 109.605 4.53744 109.596 4.18884C109.607 3.93597 109.562 3.68376 109.466 3.44979C109.369 3.21581 109.223 3.00567 109.037 2.834C108.64 2.48636 108.125 2.30447 107.597 2.32592C107.245 2.32193 106.895 2.39414 106.573 2.53762C106.27 2.6723 106.014 2.89319 105.836 3.1727C105.648 3.48352 105.553 3.84244 105.565 4.20577C105.553 4.55731 105.645 4.90462 105.828 5.20496C106.002 5.47558 106.248 5.6925 106.539 5.83158ZM106.81 3.39287C106.917 3.2981 107.042 3.22538 107.177 3.17888C107.312 3.13238 107.455 3.11301 107.597 3.12189C107.807 3.11243 108.016 3.16232 108.199 3.26585C108.347 3.35678 108.464 3.48934 108.537 3.64691C108.613 3.81731 108.651 4.00231 108.647 4.18884C108.651 4.37626 108.61 4.56187 108.529 4.73077C108.452 4.88644 108.332 5.01606 108.182 5.10335C107.997 5.20152 107.789 5.24831 107.58 5.23883C107.382 5.24471 107.185 5.20412 107.005 5.12028C106.85 5.04489 106.724 4.91965 106.649 4.76464C106.565 4.58453 106.525 4.38738 106.53 4.18884C106.52 4.0441 106.54 3.89877 106.588 3.76185C106.636 3.62493 106.711 3.49934 106.81 3.39287Z"/>
<path d="M119.3 16.0098H121.535L117.427 11.3808L121.45 7.3727H119.333L116.435 10.5566H115.811V3.22352L114.083 3.47754V16.0098H115.811V11.8606H115.839L119.3 16.0098Z"/>
</svg>

<svg xmlns="http://www.w3.org/2000/svg" fill="currentColor" viewBox="0 0 122 20"><path d="M0 16.003v-12h3.937v12H0Zm9.294-10.09 2.264 10.09H7.25l-2.704-12h2.417a2.276 2.276 0 0 1 1.513.55c.42.346.71.827.819 1.36Zm2.855 10.09v-12h3.938v12h-3.938Zm6.912-7.436a2.382 2.382 0 0 1-2.4-2.4 2.301 2.301 0 0 1 .321-1.2 2.41 2.41 0 0 1 3.278-.862c.356.21.653.506.862.862.215.363.326.778.321 1.2a2.35 2.35 0 0 1-.321 1.208 2.4 2.4 0 0 1-.862.87 2.302 2.302 0 0 1-1.2.322Zm2.99 7.436v-12h3.938v12h-3.937Zm8.923-5.442c.01.012.095.15.253.414s.364.603.617 1.014a315.936 315.936 0 0 1 1.597 2.62c.247.411.529.876.845 1.394H29.96c-.27-.44-.516-.837-.736-1.192-.22-.354-.453-.738-.7-1.149-.248-.41-.493-.81-.736-1.2-.242-.389-.45-.73-.625-1.022-.175-.293-.296-.49-.363-.592a1.747 1.747 0 0 1-.287-.845c.016-.29.11-.57.27-.811.067-.113.191-.313.371-.6s.392-.628.634-1.022c.242-.395.488-.798.736-1.209l.7-1.157.736-1.2h4.326L30.94 9.462a1.08 1.08 0 0 0-.17.541c.012.202.082.396.203.558ZM38.857 5.476h3.878V16.01h1.779V5.476h3.861v-1.49h-9.518v1.49ZM56.538 8.465a3.073 3.073 0 0 0-1.245-.957 4.348 4.348 0 0 0-1.719-.322 4.21 4.21 0 0 0-1.727.34 3.691 3.691 0 0 0-1.296.948 4.15 4.15 0 0 0-.813 1.464 6.122 6.122 0 0 0-.279 1.906 5.13 5.13 0 0 0 .5 2.362 3.311 3.311 0 0 0 1.481 1.474 5.266 5.266 0 0 0 2.405.5c.4.003.799-.023 1.194-.077.33-.048.657-.124.974-.229.315-.105.62-.236.915-.39l.118-1.303-.652.237a8.13 8.13 0 0 1-.686.212 5.13 5.13 0 0 1-.728.135 6.574 6.574 0 0 1-.745.042 5.342 5.342 0 0 1-1.321-.144 2.165 2.165 0 0 1-.94-.49 2.14 2.14 0 0 1-.576-.94 4.286 4.286 0 0 1-.184-1.118h6.12c.083-.7.052-1.41-.093-2.1a3.956 3.956 0 0 0-.703-1.55Zm-4.268.406a2.4 2.4 0 0 1 1.321-.347 2.07 2.07 0 0 1 1.304.381c.337.27.578.641.686 1.059a3.5 3.5 0 0 1 .124.948H51.25c.031-.338.103-.67.215-.99.144-.43.427-.8.804-1.05ZM64.879 7.407a6.124 6.124 0 0 0-.788-.161 6.652 6.652 0 0 0-.915-.06 4.099 4.099 0 0 0-1.609.322c-.51.216-.973.53-1.363.923a4.178 4.178 0 0 0-.94 1.49 5.71 5.71 0 0 0-.339 2.041 5.3 5.3 0 0 0 .432 2.227c.266.601.705 1.108 1.262 1.457.61.36 1.308.538 2.015.516a4.883 4.883 0 0 0 1.812-.355c.344-.14.669-.325.965-.549v.464c.007.382-.047.762-.16 1.126a2.049 2.049 0 0 1-.491.813c-.243.233-.54.402-.864.491a4.53 4.53 0 0 1-1.296.161c-.348 0-.695-.02-1.041-.06a7.388 7.388 0 0 1-1.076-.203 8.223 8.223 0 0 1-1.067-.364l.187 1.49c.311.127.63.232.957.314a8.5 8.5 0 0 0 1.041.195c.37.045.744.068 1.118.068a5.461 5.461 0 0 0 2.421-.483 3.393 3.393 0 0 0 1.482-1.338 3.84 3.84 0 0 0 .5-1.973V7.186l-1.656.427a4.936 4.936 0 0 0-.587-.206Zm.313 6.782c-.21.122-.428.23-.652.322a3.97 3.97 0 0 1-.61.195c-.203.046-.41.068-.618.068a2.946 2.946 0 0 1-1.465-.33 1.983 1.983 0 0 1-.864-1 4.501 4.501 0 0 1-.28-1.719 4.477 4.477 0 0 1 .195-1.38 2.6 2.6 0 0 1 .56-.99c.25-.266.557-.471.897-.602a3.27 3.27 0 0 1 1.21-.212c.268 0 .534.023.797.068.27.048.535.113.796.195.083.026.17.06.254.092v5.163c-.075.044-.15.09-.22.13ZM76.386 7.542a3.333 3.333 0 0 0-1.626-.356c-.492.001-.98.079-1.448.229a5.505 5.505 0 0 0-1.363.652c-.164.108-.32.226-.474.347v-1.21l-1.728.253v8.553h1.728V9.578c.167-.098.34-.187.516-.266.238-.105.481-.199.728-.28.238-.077.482-.137.729-.177a4.37 4.37 0 0 1 .702-.06 2.32 2.32 0 0 1 .813.127c.216.078.408.21.56.381.155.187.265.407.321.644.072.3.106.607.102.914v5.149h1.727v-5.504a4.694 4.694 0 0 0-.322-1.88 2.22 2.22 0 0 0-.965-1.084ZM85.582 12.115a2.552 2.552 0 0 0-.593-.466 4.602 4.602 0 0 0-.712-.33c-.18-.057-.358-.116-.533-.178a9.435 9.435 0 0 0-.525-.17c-.175-.05-.345-.104-.508-.16a3.715 3.715 0 0 1-.45-.187 2.954 2.954 0 0 1-.397-.254 1.11 1.11 0 0 1-.288-.321.814.814 0 0 1-.11-.424.876.876 0 0 1 .119-.466.963.963 0 0 1 .355-.33 1.91 1.91 0 0 1 .568-.203c.248-.048.5-.07.753-.068a5.49 5.49 0 0 1 .89.076c.175.028.35.066.524.11.175.045.353.096.534.153.167.051.331.114.49.186l.12-1.372a8.045 8.045 0 0 0-.635-.237 6.232 6.232 0 0 0-.635-.169 5.085 5.085 0 0 0-.636-.093 7.65 7.65 0 0 0-.618-.026 5.581 5.581 0 0 0-1.388.161 3.493 3.493 0 0 0-1.093.474c-.303.2-.55.475-.72.796a2.417 2.417 0 0 0-.253 1.144c-.006.285.04.569.135.838.08.226.2.435.356.618.15.173.324.324.516.449.2.131.413.242.636.33a15.113 15.113 0 0 0 .787.263 41.115 41.115 0 0 1 .745.237c.118.04.234.076.347.11.152.053.299.119.44.194.125.066.241.146.348.238a.868.868 0 0 1 .296.669.844.844 0 0 1-.28.668c-.21.176-.46.295-.728.348-.314.07-.635.103-.956.101a4.76 4.76 0 0 1-.602-.042 8.63 8.63 0 0 1-.694-.119 10.661 10.661 0 0 1-.745-.186 14.8 14.8 0 0 1-.77-.245l.067 1.44c.293.1.561.183.805.245.243.062.474.115.694.16.212.044.427.073.644.085.208.012.42.017.634.017.473.003.944-.046 1.406-.144a3.632 3.632 0 0 0 1.151-.449c.32-.195.586-.47.771-.796.194-.358.29-.76.28-1.168a2.372 2.372 0 0 0-.144-.872 1.98 1.98 0 0 0-.398-.635ZM94.684 7.72a3.64 3.64 0 0 0-2.023-.534 5.158 5.158 0 0 0-1.254.161 5.435 5.435 0 0 0-1.507.64v-.784l-1.727.271v12.092H89.9v-3.791l.034.015c.313.13.64.223.974.28a7 7 0 0 0 1.194.092 4.234 4.234 0 0 0 2.176-.559 4.021 4.021 0 0 0 1.524-1.617c.4-.8.595-1.688.567-2.583a5.27 5.27 0 0 0-.431-2.201 3.403 3.403 0 0 0-1.254-1.482Zm-.448 5.665a2.33 2.33 0 0 1-.974 1.067 3.13 3.13 0 0 1-1.55.355 4.818 4.818 0 0 1-1.558-.254l-.254-.091V9.117c.023-.01.046-.024.068-.034.248-.113.48-.209.694-.288a3.485 3.485 0 0 1 1.203-.22 3.133 3.133 0 0 1 1.507.33c.408.223.728.578.906 1.008.215.55.316 1.137.297 1.727a4.04 4.04 0 0 1-.34 1.745ZM102.008 7.313a3.328 3.328 0 0 0-.897.39c-.289.18-.556.393-.796.634-.04.04-.079.085-.118.127V7.203l-1.728.254v8.552h1.728V9.611a4.318 4.318 0 0 1 .923-.495c.174-.067.352-.127.533-.177a3.62 3.62 0 0 1 1.186-.127l.203-1.592a3.23 3.23 0 0 0-1.034.093ZM111.95 14.943a.774.774 0 0 1-.661-.271 1.458 1.458 0 0 1-.186-.898l.034-3.488a4.046 4.046 0 0 0-.136-1.084 2.642 2.642 0 0 0-.406-.864 2.289 2.289 0 0 0-.703-.627 3.592 3.592 0 0 0-1.024-.39 6.033 6.033 0 0 0-1.338-.135 8.38 8.38 0 0 0-1.067.068 7.304 7.304 0 0 0-.991.195c-.302.082-.599.18-.889.296l-.203 1.44a9.922 9.922 0 0 1 1.541-.424c.232-.044.467-.075.703-.093.231-.017.46-.025.686-.025.345-.007.69.032 1.024.118.244.062.469.184.652.356.163.168.28.375.339.601.072.28.106.567.101.855l-.002.426-1.979.133a5.261 5.261 0 0 0-1.965.44 2.816 2.816 0 0 0-1.16.94c-.25.367-.383.801-.381 1.245-.003.417.099.828.297 1.194.207.377.519.686.897.89.462.24.979.357 1.499.338.488.011.973-.069 1.431-.237a3.307 3.307 0 0 0 1.067-.677c.117-.113.228-.231.333-.355.033.175.095.344.184.499.151.259.383.461.66.575.307.124.635.184.965.178.102 0 .201-.003.297-.008a1.56 1.56 0 0 0 .279-.043c.091-.023.172-.042.246-.059.066-.015.131-.035.195-.06l.186-1.134c-.094.032-.19.055-.288.068-.079.01-.158.016-.237.017Zm-2.82-.762c-.183.145-.382.27-.593.372a2.666 2.666 0 0 1-.66.22 3.753 3.753 0 0 1-.72.068 1.911 1.911 0 0 1-.804-.152 1.107 1.107 0 0 1-.5-.432 1.265 1.265 0 0 1-.169-.669 1.28 1.28 0 0 1 .22-.796c.184-.215.434-.364.711-.423a5.154 5.154 0 0 1 1.321-.136h1.483l-.007 1.681a2.28 2.28 0 0 1-.282.267ZM106.539 5.832c.32.15.671.226 1.025.22a2.32 2.32 0 0 0 1.05-.229c.295-.143.544-.366.719-.643.181-.299.272-.643.263-.991a1.748 1.748 0 0 0-.559-1.355 2.058 2.058 0 0 0-1.44-.508 2.45 2.45 0 0 0-1.024.212 1.685 1.685 0 0 0-.737.635c-.188.31-.283.67-.271 1.033-.012.351.08.699.263.999.174.27.42.487.711.627Zm.271-2.44a1.089 1.089 0 0 1 .787-.27c.21-.01.419.04.602.144a.88.88 0 0 1 .338.38c.076.171.114.356.11.543.004.187-.037.373-.118.542a.883.883 0 0 1-.347.372 1.171 1.171 0 0 1-.602.136 1.273 1.273 0 0 1-.575-.119.769.769 0 0 1-.356-.355 1.285 1.285 0 0 1-.119-.576 1.069 1.069 0 0 1 .28-.796ZM119.3 16.01h2.235l-4.108-4.63 4.023-4.007h-2.117l-2.898 3.184h-.624V3.224l-1.728.254V16.01h1.728v-4.15h.028l3.461 4.15Z"/></svg>
